!!!COM:	Tinctoris, Johannes
!!!CDT:	~1435///-1511//
!!!OTL:	Le souvenir II
!!!AGN:	Song; Chanson
!!!SCT:	Tin3007
!!!SCA:	Tin3007
!!!voices:	4
**kern	**kern	**kern	**kern
*staff4	*staff3	*staff2	*staff1
*Ivox	*Ivox	*Ivox	*Ivox
*I"Bassus	*I"Tenor	*I"Altus	*I"Superius
*I'B	*I'T	*I'A	*I'S
*clefF4	*clefGv2	*clefGv2	*clefG2
*k[]	*k[]	*k[b-]	*k[]
*M2/1	*M2/1	*M2/1	*M2/1
*met(C|)	*met(C|)	*met(C|)	*met(C|)
=1-	=1-	=1-	=1-
1F	1r	1f	0r
2D\	1F	1f	.
[2A\	.	.	.
=2	=2	=2	=2
2A\]	1F	2.c\	0r
4G\	.	.	.
4F\	.	4d\	.
4G\	2.C/	1e	.
4F\	.	.	.
4E\	.	.	.
4D\	4D/	.	.
=3	=3	=3	=3
2C/	1E	2r	0r
2G\	.	2c\	.
2A\	2r	2f\	.
[2c\	2C/	2g\	.
=4	=4	=4	=4
2c\]	2F/	2a\	0r
2C/	2G/	2.g\	.
1F	2.A/	.	.
.	.	4f\	.
.	.	[2f\	.
.	4G/	.	.
=5	=5	=5	=5
1C	1G	2f\]	0r
.	.	2e\	.
2.F\	2r	2f\	.
.	[2F/	2d\	.
4G\	.	.	.
=6	=6	=6	=6
2.A\	2F/]	1c	1cc
.	4E/	.	.
4B\	4D/	.	.
[1c	1C	1r	1cc
=7	=7	=7	=7
2c\]	2r	0r	2.g/
4B\	2c\	.	.
4A\	.	.	4a/
2.G\	4d\	.	1b
.	4c\	.	.
.	4B\	.	.
4A\	4A/	.	.
=8	=8	=8	=8
1B	2.G/	0r	2r
.	.	.	2g/
.	4E/	.	.
2r	2F/	.	2cc\
2G\	2B-i\	.	2dd\
=9	=9	=9	=9
2c\	2A/	0r	2ee\
2d\	2B-i\	.	2.dd\
2.e\	2c\	.	.
.	.	.	4cc\
.	4B-i\	.	[2cc\
4d\	4A/	.	.
=10	=10	=10	=10
1d	4G/	0r	2cc\]
.	4F/	.	.
.	4E/	.	2b\
.	4D/	.	.
[1c	2C/	.	2.cc\
.	2F/	.	.
.	.	.	4b\
=11	=11	=11	=11
2c\]	2E/	2r	1g
2.e\	2C/	2c\	.
.	2D/	1A	1a
4d\	.	.	.
[2d\	2F/	.	.
=12	=12	=12	=12
2d\]	1E	1G	0r
2c#i\	.	.	.
1d	2.D/	2r	.
.	.	2F/	.
.	4E/	.	.
=13	=13	=13	=13
1D	1F	2A/	0r
.	.	2B-\	.
2E\	2G/	2c\	.
2F\	2A/	2d\	.
=14	=14	=14	=14
2G\	2B\	2e\	0r
2A\	1c	1f	.
1F	.	.	.
.	4B\	[2d\	.
.	4A/	.	.
=15	=15	=15	=15
2G\	2B\	4d\]	0r
.	.	4c\	.
2E\	1G	1c	.
1D	.	.	.
.	2F/	2Bni\	.
=16	=16	=16	=16
1C	2G/	0c	2r
.	4A/	.	2g/
.	4B\	.	.
2r	2c\	.	1e
2C/	4d\	.	.
.	4e\	.	.
=17	=17	=17	=17
4D\	1f	0r	1d
4E\	.	.	.
4F\	.	.	.
4G\	.	.	.
2.A\	1e	.	2r
.	.	.	2c/
4G\	.	.	.
=18	=18	=18	=18
2A\	2c\	0r	2e/
2D\	2d\	.	2f/
2C/	2e\	.	2g/
2F\	2c\	.	2a/
=19	=19	=19	=19
2D\	2d\	0r	2b\
2.F\	2A/	.	1cc
.	1c	.	.
4G\	.	.	.
2A\	.	.	[2a/
=20	=20	=20	=20
2D\	2d\	0r	4a/]
.	.	.	4g/
2G\	2B\	.	1g
1D	1A	.	.
.	.	.	2f#i/
=21	=21	=21	=21
2r	2G/	1e	0g
1E	1c	.	.
.	.	2.e\	.
[2C/	4B\	.	.
.	4A/	4f\	.
=22	=22	=22	=22
1C]	1G	1g	1r
1F	2F/	1a	1cc
.	[2A/	.	.
=23	=23	=23	=23
1D	2A/]	2r	2.dd\
.	2B\	2f\	.
.	.	.	4cc\
1A	2.c\	2e\	1a
.	.	2f\	.
.	4d\	.	.
=24	=24	=24	=24
2G\	2e\	2g\	2r
2F\	2f\	2a\	2cc\
1B-i	[1d	2f\	2.dd\
.	.	[2b-\	.
.	.	.	4cc\
=25	=25	=25	=25
2G\	2d\]	4b-\]	2.dd\
.	.	4a\	.
2A\	2c\	1a	.
.	.	.	4a/
2E\	1B	.	1b
2G\	.	2g\	.
=26	=26	=26	=26
2F\	1A	2a\	2r
4E\	.	4g\	1cc
4D\	.	4f\	.
2.C/	1c	1e	.
.	.	.	4b\
4D\	.	.	4a/
=27	=27	=27	=27
2E\	0c	2r	2g/
1F	.	1a	2.cc\
.	.	.	4dd\
4E\	.	[2g\	[2ee\
4D\	.	.	.
=28	=28	=28	=28
1C	1c	2g\]	2ee\]
.	.	4f\	4dd\
.	.	4e\	4cc\
1r	1G	1d	2.b\
.	.	.	4a/
=29	=29	=29	=29
1C	1c	2r	1cc
.	.	2c\	.
2c\	1r	2e\	2r
2d\	.	2f\	2a/
=30	=30	=30	=30
2B\	1r	2g\	2b\
2A\	.	1a	2cc\
1d	1D	.	1a
.	.	[2f\	.
=31	=31	=31	=31
1D	1.d	2f\]	1dd
.	.	1b-	.
2G\	.	.	2g/
2A\	[2c\	[2a\	[2cc\
=32	=32	=32	=32
1F	2c\]	4a\]	4cc\]
.	.	4g\	4b\
.	4B\	4f\	2cc\
.	4A/	4e\	.
2r	4B\	2d\	2dd\
.	4c\	.	.
2G\	[2d\	[2g\	2b\
=33	=33	=33	=33
1D	2d\]	2g\]	1a
.	2d\	2f#i\	.
[1G	1d	2g\	2.g/
.	.	[2b-\	.
.	.	.	4f/
=34	=34	=34	=34
2G\]	0r	2b-\]	1d
2D\	.	1a	.
2F\	.	.	1c
4E\	.	[2g\	.
4D\	.	.	.
=35	=35	=35	=35
1C	1c	4g\]	2r
.	.	4f\	.
.	.	4e\	1cc
.	.	4d\	.
2F\	2A/	2c\	.
2A\	[2c\	[2f\	4b\
.	.	.	4a/
=36	=36	=36	=36
1G	2c\]	2f\]	1g
.	2B\	2e\	.
2.F\	1c	1f	1a
4E\	.	.	.
=37	=37	=37	=37
2D\	2d\	0r	2b\
2C/	2e\	.	2cc\
2r	2f\	.	2dd\
[2c\	2e\	.	[2ee\
=38	=38	=38	=38
4c\]	1c	1e	2ee\]
4B\	.	.	.
2.A\	.	.	1cc
.	1f	1c	.
4G\	.	.	.
[2F\	.	.	[2ff\
=39	=39	=39	=39
4F\]	2d\	2f\	2ff\]
4E\	.	.	.
2.C/	2e\	1.g	2.ee\
.	1c	.	.
4D\	.	.	4dd\
2E\	.	.	4cc\
.	.	.	4b\
=40	=40	=40	=40
2F\	1d	2f\	2a/
2D\	.	2.a\	1dd
1A	1e	.	.
.	.	4g\	.
.	.	2a\	2cc#i\
=41	=41	=41	=41
1D	2d\	2.f\	2dd\
.	4c\	.	1ff
.	4B\	4g\	.
1c	1A	1a	.
.	.	.	[2ee\
=42	=42	=42	=42
1B	2.G/	2r	2ee\]
.	.	1d	2.dd\
.	4A/	.	.
1G	2.B\	.	.
.	.	.	4cc\
.	.	[2g\	4b\
.	4c\	.	4a/
=43	=43	=43	=43
1C	2d\	1g]	2g/
.	2e\	.	1cc
1G	1d	1g	.
.	.	.	2b\
=44	=44	=44	=44
2C/	[0cl	2e\	[0ccl
2.F\	.	1a	.
4E\	.	.	.
4F\	.	4g\	.
4G\	.	4f\	.
=45	=45	=45	=45
2A\	0c_	[0el	0cc_
4G\	.	.	.
4F\	.	.	.
4G\	.	.	.
4F\	.	.	.
4E\	.	.	.
4D\	.	.	.
=46	=46	=46	=46
0Cl	0c]	0e]	0cc]
==	==	==	==
*-	*-	*-	*-
!!!RDF**kern: l=long note in original notation
!!!RDF**kern: i=editorial accidental
!!!ENC:	Chris Gage 01-29-2015
!!!END:	2015/02/22/
!!!EED:	Jesse Rodin
!!!EEV:	2015/03/09/
!!!ONB:	Translated from MusicXML and edited on 2015/03/09/ by Craig Sapp
!!muse2ps: C^@{COM}^i2I150v85,85,85,150Q16
